communes/5.svg

<?xml version="1.0" encoding="UTF-8" standalone="no"?>
<!-- Created with Inkscape (http://www.inkscape.org/) -->
<svg
   xmlns:svg="http://www.w3.org/2000/svg"
   xmlns="http://www.w3.org/2000/svg"
   version="1.0"
   width="234.12976"
   height="274.24658"
   id="svg2780">
  <defs
     id="defs2782" />
  <g
     transform="translate(26.671646,-822.04724)"
     id="layer1">
    <path
       d="M -25.671646,823.04725 L -21.451109,1000.3241 C -18.436449,1126.9504 199.22291,1126.9504 202.23758,1000.3241 L 206.45812,823.04725 L -25.671646,823.04725 z"
       id="path3282"
       style="fill:#f8e63b;fill-opacity:1;fill-rule:evenodd;stroke:#000000;stroke-width:2;stroke-linecap:butt;stroke-miterlimit:4;stroke-dashoffset:0;stroke-opacity:1" />
    <path
       d="M 104.28125,18.71875 L -2.375,250.9375 L 204.09375,118.1875 L 206.46875,18.71875 L 104.28125,18.71875 z"
       transform="translate(0,804.33069)"
       id="path4367"
       style="fill:#000000;fill-opacity:1;fill-rule:evenodd;stroke:none;stroke-width:1px;stroke-linecap:butt;stroke-linejoin:miter;stroke-opacity:1" />
  </g>
</svg>

<?xml version="1.0" encoding="UTF-8"?>
<svg version="1.0" viewBox="0 0 234.13 274.25" xmlns="http://www.w3.org/2000/svg">
<g transform="translate(26.672 -822.05)" fill-rule="evenodd">
<path d="m-25.672 823.05 4.2205 177.28c3.0147 126.63 220.67 126.63 223.69 0l4.2205-177.28h-232.13z" fill="#f8e63b" stroke="#000" stroke-width="2"/>
<path transform="translate(0 804.33)" d="m104.28 18.719-106.66 232.22 206.47-132.75 2.375-99.469h-102.19z"/>
</g>
</svg>
